src/main/resources/icons/AllIcons/ide/pipette.svg

<!-- Copyright 2000-2021 JetBrains s.r.o. Use of this source code is governed by the Apache 2.0 license that can be found in the LICENSE file. -->
<svg xmlns="http://www.w3.org/2000/svg" width="16" height="16" viewBox="0 0 16 16">
  <path fill="#6E6E6E" d="M15.0494737,2.67474772 L13.3252632,0.950527524 C13.0378947,0.663157492 12.5736842,0.663157492 12.2863158,0.950527524 L9.98736842,3.24948779 L8.56526316,1.84211147 L7.52631579,2.88106467 L8.57263158,3.92738632 L2,10.5000548 L2,14.0000744 L5.5,14.0000744 L12.0726316,7.42740595 L13.1189474,8.47372761 L14.1578947,7.43477441 L12.7431579,6.02002964 L15.0421053,3.72106938 C15.3368421,3.42633088 15.3368421,2.96211775 15.0494737,2.67474772 Z M4.88842105,12.5263819 L3.47368421,11.1116371 L9.41263158,5.17265646 L10.8273684,6.58740124 L4.88842105,12.5263819 Z"/>
</svg>

<svg xmlns="http://www.w3.org/2000/svg" width="16" height="16" viewBox="0 0 16 16"><rect id="frame" width="16" height="16" fill="none"/><path fill="#6E6E6E" d="M15.05 2.675L13.324.95a.734.734 0 0 0-1.039 0L9.987 3.249 8.565 1.842l-1.039 1.04 1.047 1.045L2 10.5V14h3.5l6.573-6.573 1.046 1.047 1.039-1.04-1.415-1.414 2.3-2.299a.736.736 0 0 0 .006-1.046zM4.887 12.526l-1.414-1.414 5.939-5.94 1.414 1.415-5.939 5.94z"/></svg>
